**kern	**kern
*part1	*part1
*staff2	*staff1
*I"Piano	*
*clefF4	*clefG2
*k[b-e-a-d-]	*k[b-e-a-d-]
=1	=1
4.DD- 4.D-	4.f
=	=
4.D-	8fL 8bn
.	8f 8b
.	8fJ 8b
=	=
4.C	8enL 8cc
.	8e 8cc
.	8eJ 8cc
=	=
4.C	8fL 8a-
.	8f 8a-
.	8fJ 8a-
=	=
4.C	8gL
.	8g
.	8gJ
=	=
4.C	8enL 8g
.	8e 8g
.	8eJ 8g
=	=
4F	8fL
.	8f
8r	8a-J
=	=
4.r	8a-L 8cc
.	8a- 8cc
.	8a-J 8cc
=	=
*-	*-
!!!system-decoration: {(s1,s2)}
